dist/svg/circle-o.svg

<!-- Generated by Trend Micro Style Portal -->
<svg version="1.1" xmlns="http://www.w3.org/2000/svg" width="16" height="16" viewBox="0 0 16 16">
  <title>circle-o</title>
  <path fill="rgb(34,34,34)" d="M8 2.5c3.038 0 5.5 2.462 5.5 5.5s-2.462 5.5-5.5 5.5c-3.038 0-5.5-2.462-5.5-5.5v0c0.004-3.036 2.464-5.496 5.5-5.5h0zM8 1c-3.866 0-7 3.134-7 7s3.134 7 7 7c3.866 0 7-3.134 7-7v0c0-3.866-3.134-7-7-7v0z"></path>
</svg>

<svg width="16" height="16" viewBox="0 0 16 16" fill="rgb(34, 34, 34)" xmlns="http://www.w3.org/2000/svg"><title>circle-o</title><path d="M8 2.5C11.038 2.5 13.5 4.962 13.5 8C13.5 11.038 11.038 13.5 8 13.5C4.962 13.5 2.5 11.038 2.5 8C2.504 4.964 4.964 2.504 8 2.5ZM8 1C4.134 1 1 4.134 1 8C1 11.866 4.134 15 8 15C11.866 15 15 11.866 15 8C15 4.134 11.866 1 8 1Z" fill="rgb(34, 34, 34)" fill-opacity="1.00"/></svg>
